X:111
T:Gallop on Gaily. GS.111
M:6/8
L:1/8
Q:3/8=110
S:George Spencer m/s, Leeds,1831
R:.Jig
O:England
A:Leeds
N:â€™George Spencerâ€™ written after the end of the music
H:1831
Z:vmp.Cherri Graebe
K:D major
A | ABA d2 f | gfe fga | ABA d2 f | gec d2 :|!
|: e | efe aec | fdB ecA |efe aec | edB A2 e |!
efe aec | edB ecA | efe aec | edB A3 ||!
(D3F2)G | AAA A2a | aba agf |gfe fga |!
D3 F2 â€œ^crâ€ G | AAA A2a | aba agf | gfe d3 |]

